icons/Mastercard.svg

<svg width="51" height="35" viewBox="0 0 51 35" fill="none" xmlns="http://www.w3.org/2000/svg">
<rect x="0.5" y="0.5" width="50" height="34" rx="5.5" fill="white" stroke="#D9D9D9"/>
<path fill-rule="evenodd" clip-rule="evenodd" d="M25.8645 25.0206C24.1282 26.5202 21.876 27.4255 19.4149 27.4255C13.9234 27.4255 9.47168 22.9184 9.47168 17.3586C9.47168 11.7988 13.9234 7.29175 19.4149 7.29175C21.876 7.29175 24.1282 8.19701 25.8645 9.69658C27.6008 8.19701 29.8531 7.29175 32.3142 7.29175C37.8057 7.29175 42.2574 11.7988 42.2574 17.3586C42.2574 22.9184 37.8057 27.4255 32.3142 27.4255C29.8531 27.4255 27.6008 26.5202 25.8645 25.0206Z" fill="#ED0006"/>
<path fill-rule="evenodd" clip-rule="evenodd" d="M25.8643 25.0206C28.0022 23.1742 29.3578 20.4267 29.3578 17.3586C29.3578 14.2905 28.0022 11.543 25.8643 9.69658C27.6005 8.19701 29.8528 7.29175 32.3139 7.29175C37.8054 7.29175 42.2571 11.7988 42.2571 17.3586C42.2571 22.9184 37.8054 27.4255 32.3139 27.4255C29.8528 27.4255 27.6005 26.5202 25.8643 25.0206Z" fill="#F9A000"/>
<path fill-rule="evenodd" clip-rule="evenodd" d="M25.8646 9.69653C28.0025 11.543 29.3581 14.2905 29.3581 17.3585C29.3581 20.4266 28.0025 23.174 25.8646 25.0205C23.7267 23.174 22.3711 20.4266 22.3711 17.3585C22.3711 14.2905 23.7267 11.543 25.8646 9.69653Z" fill="#FF5E00"/>
</svg>

<svg width="51" height="35" fill="none" xmlns="http://www.w3.org/2000/svg"><rect x=".5" y=".5" width="50" height="34" rx="5.5" fill="#fff" stroke="#D9D9D9"/><path fill-rule="evenodd" clip-rule="evenodd" d="M25.864 25.02a9.832 9.832 0 0 1-6.45 2.405c-5.49 0-9.942-4.507-9.942-10.066 0-5.56 4.451-10.067 9.943-10.067 2.461 0 4.713.905 6.45 2.405a9.833 9.833 0 0 1 6.45-2.405c5.49 0 9.942 4.507 9.942 10.067 0 5.56-4.451 10.066-9.943 10.066a9.832 9.832 0 0 1-6.45-2.404Z" fill="#ED0006"/><path fill-rule="evenodd" clip-rule="evenodd" d="M25.864 25.02a10.096 10.096 0 0 0 3.494-7.661c0-3.069-1.356-5.816-3.494-7.662a9.832 9.832 0 0 1 6.45-2.405c5.491 0 9.943 4.507 9.943 10.067 0 5.56-4.452 10.066-9.943 10.066a9.832 9.832 0 0 1-6.45-2.404Z" fill="#F9A000"/><path fill-rule="evenodd" clip-rule="evenodd" d="M25.865 9.697a10.096 10.096 0 0 1 3.493 7.662c0 3.068-1.355 5.815-3.493 7.661a10.096 10.096 0 0 1-3.494-7.662c0-3.068 1.356-5.815 3.494-7.661Z" fill="#FF5E00"/></svg>
